src/lib/packages/icons/src/assets/line/chat-dots-notification.svg

<svg width="24" height="24" viewBox="0 0 24 24" fill="none" xmlns="http://www.w3.org/2000/svg">
<path d="M4.0049 21.749C3.5479 21.749 3.10408 21.569 2.76809 21.233C2.29408 20.76 2.13108 20.073 2.34108 19.441L3.1819 16.94C3.2799 16.633 3.27102 16.325 3.15602 16.082C2.56402 14.809 2.25392 13.399 2.25392 11.999C2.25392 6.62402 6.62697 2.25 12.002 2.25C12.372 2.25 12.7321 2.272 13.0921 2.315C13.5041 2.365 13.7961 2.73902 13.7461 3.15002C13.6971 3.56102 13.3101 3.85302 12.9121 3.80402C12.6111 3.76702 12.311 3.74902 12.002 3.74902C7.45397 3.74902 3.75392 7.44899 3.75392 11.998C3.75392 13.181 4.01693 14.372 4.51393 15.442C4.78993 16.023 4.82591 16.722 4.60891 17.405L3.76491 19.916C3.72291 20.041 3.78712 20.13 3.82912 20.172C3.87112 20.214 3.96096 20.278 4.08596 20.236L6.584 19.397C7.278 19.176 7.97794 19.21 8.56594 19.491C9.62794 19.985 10.819 20.248 12.002 20.248C16.551 20.248 20.251 16.548 20.251 11.999C20.251 11.69 20.233 11.39 20.197 11.089C20.147 10.678 20.4391 10.304 20.8511 10.254C21.2541 10.205 21.6351 10.497 21.6851 10.908C21.7291 11.268 21.75 11.627 21.75 11.998C21.75 17.373 17.377 21.747 12.001 21.747C10.602 21.747 9.19204 21.436 7.92604 20.847C7.67804 20.728 7.36904 20.72 7.05104 20.821L4.56203 21.657C4.37803 21.719 4.1899 21.749 4.0049 21.749ZM21.75 5C21.75 3.484 20.517 2.25 19 2.25C17.483 2.25 16.25 3.484 16.25 5C16.25 6.516 17.483 7.75 19 7.75C20.517 7.75 21.75 6.516 21.75 5ZM20.25 5C20.25 5.689 19.689 6.25 19 6.25C18.311 6.25 17.75 5.689 17.75 5C17.75 4.311 18.311 3.75 19 3.75C19.689 3.75 20.25 4.311 20.25 5ZM13.02 12C13.02 11.448 12.573 11 12.02 11H12.01C11.458 11 11.0149 11.448 11.0149 12C11.0149 12.552 11.468 13 12.02 13C12.572 13 13.02 12.552 13.02 12ZM17.02 12C17.02 11.448 16.573 11 16.02 11H16.01C15.458 11 15.0149 11.448 15.0149 12C15.0149 12.552 15.468 13 16.02 13C16.572 13 17.02 12.552 17.02 12ZM9.02004 12C9.02004 11.448 8.57304 11 8.02004 11H8.01003C7.45803 11 7.01491 11.448 7.01491 12C7.01491 12.552 7.46804 13 8.02004 13C8.57204 13 9.02004 12.552 9.02004 12Z" fill="currentColor"/>
</svg>

<svg xmlns="http://www.w3.org/2000/svg" width="24" height="24" fill="none"><path fill="currentColor" d="M4.005 21.749c-.457 0-.9-.18-1.237-.516a1.743 1.743 0 0 1-.427-1.792l.84-2.501c.099-.307.09-.615-.025-.858a9.74 9.74 0 0 1-.902-4.083c0-5.375 4.373-9.749 9.748-9.749.37 0 .73.022 1.09.065a.75.75 0 0 1-.18 1.489 7.413 7.413 0 0 0-.91-.055c-4.548 0-8.248 3.7-8.248 8.249a8.23 8.23 0 0 0 .76 3.444c.276.581.312 1.28.095 1.963l-.844 2.511a.242.242 0 0 0 .064.256.243.243 0 0 0 .257.064l2.498-.839c.694-.221 1.394-.187 1.982.094a8.21 8.21 0 0 0 3.436.757c4.549 0 8.249-3.7 8.249-8.249 0-.309-.018-.609-.054-.91a.75.75 0 1 1 1.488-.181c.044.36.065.719.065 1.09 0 5.375-4.373 9.749-9.749 9.749a9.727 9.727 0 0 1-4.075-.9c-.248-.119-.557-.127-.875-.026l-2.489.836a1.744 1.744 0 0 1-.557.092ZM21.75 5A2.753 2.753 0 0 0 19 2.25 2.753 2.753 0 0 0 16.25 5 2.753 2.753 0 0 0 19 7.75 2.753 2.753 0 0 0 21.75 5Zm-1.5 0c0 .689-.561 1.25-1.25 1.25S17.75 5.689 17.75 5s.561-1.25 1.25-1.25 1.25.561 1.25 1.25Zm-7.23 7a1 1 0 0 0-1-1h-.01a.996.996 0 0 0-.995 1c0 .552.453 1 1.005 1a1 1 0 0 0 1-1Zm4 0a1 1 0 0 0-1-1h-.01a.996.996 0 0 0-.995 1c0 .552.453 1 1.005 1a1 1 0 0 0 1-1Zm-8 0a1 1 0 0 0-1-1h-.01a.996.996 0 0 0-.995 1c0 .552.453 1 1.005 1a1 1 0 0 0 1-1Z"/></svg>
